X: 2
T: The Screech Owl Reel
C: Dave Wiesler (1994)
R: Reel
M: C|
L: 1/8
K: Am
"Am"A2 AA A2 AB | cB A2 A4 | "Am"A2 c2 "G"d2 cd | "C"e2e2 "G"d4 |\
"Dm"d2de fedc | "Bb"d2d2 "Am"c2 AB | c2dc "G"BA G2 | "Dm"A4 "(Am)"A4 :|
"F"a2 a4 a2 | "C"ge c2 "G"d4 | "Dm"dcde fedc | "Bb"d2 d2 "Am"c2 A2 |\
"F"a2 a4 a2 | "C"ge c2 "G"d2 cd | "Am"e2AB c2 dc | "Em"BA G2 "Am"A4 |
"F"a2 a4 a2 | "C"ge c2 "G"d4 | "Dm"dcde fedc | "Bb"d2 d2 "Am"c2 A2 |\
"F"A2 cA "G"B2dB | "F/A"c2 ec "G/B"d2 fd | "C"e2 ce "Dm"dcBA | "Em"E2 G2 "Am"A4 |]
% text 4/28/12


